packages/icons/src/svg/28/view_outline_28.svg

<?xml version="1.0" encoding="UTF-8"?>
<svg width="28px" height="28px" viewBox="0 0 28 28" version="1.1" xmlns="http://www.w3.org/2000/svg" xmlns:xlink="http://www.w3.org/1999/xlink">
    <!-- Generator: Sketch 63.1 (92452) - https://sketch.com -->
    <title>view_outline_28</title>
    <desc>Created with Sketch.</desc>
    <g id="Page-1" stroke="none" stroke-width="1" fill="none" fill-rule="evenodd">
        <g id="view_outline_28">
            <rect x="0" y="0" width="28" height="28"></rect>
            <path d="M14,6 C19.9940589,6 25.5,10.5566409 25.5,14 C25.5,17.4433591 19.9940589,22 14,22 C8.00594109,22 2.5,17.4433591 2.5,14 C2.5,10.5566409 8.00594109,6 14,6 Z M14,8 C9.03572558,8 4.5,11.7537039 4.5,14 C4.5,16.2462961 9.03572558,20 14,20 C18.9642744,20 23.5,16.2462961 23.5,14 C23.5,11.7537039 18.9642744,8 14,8 Z M14,10 C16.209139,10 18,11.790861 18,14 C18,16.209139 16.209139,18 14,18 C11.790861,18 10,16.209139 10,14 C10,11.790861 11.790861,10 14,10 Z M14,12 C12.8954305,12 12,12.8954305 12,14 C12,15.1045695 12.8954305,16 14,16 C15.1045695,16 16,15.1045695 16,14 C16,12.8954305 15.1045695,12 14,12 Z" id="↳-Icon-Color" fill="currentColor" fill-rule="nonzero"></path>
        </g>
    </g>
</svg>

<svg xmlns="http://www.w3.org/2000/svg" width="28" height="28" fill="currentColor" viewBox="0 0 28 28"><path d="M14 6c5.994 0 11.5 4.557 11.5 8 0 3.443-5.506 8-11.5 8S2.5 17.443 2.5 14c0-3.443 5.506-8 11.5-8Zm0 2c-4.964 0-9.5 3.754-9.5 6s4.536 6 9.5 6 9.5-3.754 9.5-6-4.536-6-9.5-6Zm0 2a4 4 0 1 1 0 8 4 4 0 0 1 0-8Zm0 2a2 2 0 1 0 0 4 2 2 0 0 0 0-4Z"/></svg>
